**kern	**silbe	**harmony	**phrase	**leadinstrument	**rhyme	**timestamp	**harte
*ICvox	*	*M12/8	*	*	*	*	*M12/8
*VRlead	*	*	*	*	*	*	*
*Hstimme	*	*	*	*	*	*	*
*C:	*	*F:	*	*	*	*	*F:
*M12/8	*	*	*	*	*	*	*
*clefGv2	*	*	*	*	*	*	*
r;	.	1r;	.	r	.	0	N.C.
=1	=1	=1	=1	=1	=1	=1	=1
*>Letter>A	*>Letter>A	*>Letter>A	*>Letter>A	*>Letter>A	*>Letter>A	*>Letter>A	*>Letter>A
*>Label>Intro	*>Label>Intro	*>Label>Intro	*>Label>Intro	*>Label>Intro	*>Label>Intro	*>Label>Intro	*>Label>Intro
4g	Un-	2.CM	newline	r	.	0.267	C:maj
8g	-for-	.	.	.	.	.	.
8a	-get-	.	.	.	.	.	.
8b	-a-	.	.	.	.	.	.
[8a	ble	.	.	.	.	.	.
4.a]	_	2.Am	.	r	.	2.202	A:min
4.c	Ooh	.	.	.	.	.	.
=2	=2	=2	=2	=2	=2	=2	=2
4d	_	2.Dmm	.	r	.	4.136	D:min7
8r	.	.	.	.	.	.	.
4.f	That's	.	.	.	.	.	.
4.e	what	2.GMm	.	r	.	6.071	G:7
4.d	you	.	.	.	.	.	.
=3	=3	=3	=3	=3	=3	=3	=3
2.c	are	2.CM	.	r	.	8.005	C:maj
4r	.	2.AMm	.	r	.	9.94	A:7
2r	.	.	.	.	.	.	.
=4	=4	=4	=4	=4	=4	=4	=4
1.r	.	2.Dmm	.	r	.	11.874	D:min7
.	.	2.GMm	.	r	.	13.809	G:9
=5	=5	=5	=5	=5	=5	=5	=5
*>Letter>B	*>Letter>B	*>Letter>B	*>Letter>B	*>Letter>B	*>Letter>B	*>Letter>B	*>Letter>B
*>Label>Verse	*>Label>Verse	*>Label>Verse	*>Label>Verse	*>Label>Verse	*>Label>Verse	*>Label>Verse	*>Label>Verse
8.r	.	8%9CMM	newline	voice	.	15.743	C:maj7
[8.?G	un	.	.	.	.	.	.
8?G]	_	.	.	.	.	.	.
8?A	-for-	.	.	.	.	.	.
16?B	-get-	.	.	.	.	.	.
16?B	-a-	.	.	.	.	.	.
[4.?B	-ble	.	.	.	.	.	C:maj7
4B]	_	4.BA	.	voice	.	18.634	B:aug
8r	.	.	.	.	.	.	.
=6	=6	=6	=6	=6	=6	=6	=6
4.r	.	1.CM	.	voice	.	19.598	C:maj
8.r	.	.	.	.	.	.	.
16B	Mmmh	.	.	.	.	.	.
[8d	_	.	.	.	.	.	.
4.d_	_	.	.	.	.	.	.
4d]	_	.	.	.	.	.	.
8B	that's	.	.	.	.	.	.
=7	=7	=7	=7	=7	=7	=7	=7
8r	.	1.E-d	.	voice	.	23.452	E-:dim
8c	what	.	.	.	.	.	.
16A	you	.	.	.	.	.	.
[16B	are	.	.	.	A	.	.
4.B_	_	.	.	.	.	.	.
4B]	_	.	.	.	.	.	.
8r	.	.	.	.	.	.	.
4.r	.	.	.	.	.	.	.
=8	=8	=8	=8	=8	=8	=8	=8
1.r	.	1.E-d	.	voice	.	27.307	E-:dim
=9	=9	=9	=9	=9	=9	=9	=9
8.r	.	1.FMM	newline	voice	.	31.161	F:maj7
[8.?c	un	.	.	.	.	.	.
8?c]	_	.	.	.	.	.	.
8.?d	-for-	.	.	.	.	.	.
16?e	-get-	.	.	.	.	.	.
16?e	-a-	.	.	.	.	.	.
[16?e	-ble	.	.	.	.	.	.
4e_	_	.	.	.	.	.	.
4.e]	_	.	.	.	.	.	.
=10	=10	=10	=10	=10	=10	=10	=10
2.r	.	1.FMM	.	voice	.	34.987	F:maj7
4g	Though	.	.	.	.	.	.
8.e	near	.	.	.	.	.	.
8.d	or	.	.	.	.	.	.
[8e	far	.	.	.	A	.	.
=11	=11	=11	=11	=11	=11	=11	=11
1.e]	_	2.DMm	.	voice	.	38.812	D:7
.	.	2.Dm	.	voice	.	40.725	D:sus4(b7)/2
=12	=12	=12	=12	=12	=12	=12	=12
1.r	.	2.Ddm	.	voice	.	42.638	D:hdim7/b3
.	.	2.DMm	.	voice	.	44.55	D:7/3
=13	=13	=13	=13	=13	=13	=13	=13
8.r	.	1.B-M	newline	voice	.	46.463	B-:maj
8.f	like	.	.	.	.	.	.
4r	.	.	.	.	.	.	.
8g	a	.	.	.	.	.	.
[4.g	song	.	.	.	.	.	.
8g]	_	.	.	.	.	.	.
8f	of	.	.	.	.	.	.
[8f	love	.	.	.	.	.	.
=14	=14	=14	=14	=14	=14	=14	=14
8f]	_	1.B-m	.	voice	.	50.272	B-:min
4r	.	.	.	.	.	.	.
8r	.	.	.	.	.	.	.
8g	that	.	.	.	.	.	.
16g	clings	.	.	.	B	.	.
[16a	_	.	.	.	.	.	.
8a]	_	.	.	.	.	.	.
16g	to	.	.	.	.	.	.
[8.f	me	.	.	.	.	.	.
4.f]	_	.	.	.	.	.	.
=15	=15	=15	=15	=15	=15	=15	=15
4r	.	2.FM	.	voice	.	54.081	F:maj
[8e	Ooh	.	.	.	.	.	.
4.e]	_	.	.	.	.	.	.
8e#-	how	2.Cm	.	voice	.	55.985	C:min6
8c	the	.	.	.	.	.	.
8e#-	thought	.	.	.	.	.	.
8r	.	.	.	.	.	.	.
8c	of	.	.	.	.	.	.
8e#-	you	.	.	.	.	.	.
=16	=16	=16	=16	=16	=16	=16	=16
8c	_	1.DMm	.	voice	.	57.889	D:7
4e#-	does	.	.	.	.	.	.
4r	.	.	.	.	.	.	.
16d	things	.	.	.	B	.	.
[16e	_	.	.	.	.	.	.
8e]	_	.	.	.	.	.	.
16d	to	.	.	.	.	.	.
[8.c	me	.	.	.	.	.	.
4.c]	_	.	.	.	.	.	.
=17	=17	=17	=17	=17	=17	=17	=17
4.r	.	1.GMm	newline	voice	.	61.698	G:9
8r	.	.	.	.	.	.	.
16A	nev-	.	.	.	.	.	.
[8.A	-er	.	.	.	.	.	.
2A]	_	.	.	.	.	.	.
8d	be-	.	.	.	.	.	.
[8A	-fore	.	.	.	C	.	.
=18	=18	=18	=18	=18	=18	=18	=18
4A]	_	8%9GMm	.	voice	.	65.552	G:9
8r	.	.	.	.	.	.	.
4.r	.	.	.	.	.	.	.
4.r	.	.	.	.	.	.	G:9
4r	.	4.F#Mm	.	voice	.	68.442	F#:7
[8A	has	.	.	.	.	.	.
=19	=19	=19	=19	=19	=19	=19	=19
8.A]	_	1.GMm	.	voice	.	69.406	G:7
8B	some-	.	.	.	.	.	.
[16B	-one	.	.	.	.	.	.
4B]	_	.	.	.	.	.	.
8r	.	.	.	.	.	.	.
4.r	.	.	.	.	.	.	.
4f	been	.	.	.	.	.	.
[8B	more	.	.	.	C	.	.
=20	=20	=20	=20	=20	=20	=20	=20
4.B_	_	1.GMm	.	voice	.	73.26	G:7
8B]	_	.	.	.	.	.	.
4r	.	.	.	.	.	.	.
8r	.	.	.	.	.	.	.
8A	mmh	.	.	.	.	.	.
[8B	_	.	.	.	.	.	.
8B]	_	.	.	.	.	.	.
16e	_	.	.	.	.	.	.
16e	_	.	.	.	.	.	.
16B-	_	.	.	.	.	.	.
16A	_	.	.	.	.	.	.
=21	=21	=21	=21	=21	=21	=21	=21
*>Letter>B	*>Letter>B	*>Letter>B	*>Letter>B	*>Letter>B	*>Letter>B	*>Letter>B	*>Letter>B
*>Label>Verse	*>Label>Verse	*>Label>Verse	*>Label>Verse	*>Label>Verse	*>Label>Verse	*>Label>Verse	*>Label>Verse
8A	_	8%9CMM	newline	voice	.	77.113	C:maj7
8A-	_	.	.	.	.	.	.
8r	.	.	.	.	.	.	.
8.G	Un-	.	.	.	.	.	.
8A	-for-	.	.	.	.	.	.
16B	-get-	.	.	.	(D	.	.
16B	-a-	.	.	.	.	.	C:maj7
[16B	-ble	.	.	.	d)	.	.
4B_	_	.	.	.	.	.	.
4.B]	_	4.BA	.	voice	.	80.009	B:aug
=22	=22	=22	=22	=22	=22	=22	=22
4.r	.	1.CM	.	voice	.	80.974	C:maj
4r	.	.	.	.	.	.	.
16r	.	.	.	.	.	.	.
16B	Ooh	.	.	.	.	.	.
4.d	_	.	.	.	.	.	.
16B	in	.	.	.	.	.	.
8A	_	.	.	.	.	.	.
8B	e-	.	.	.	.	.	.
16A	-very	.	.	.	.	.	.
=23	=23	=23	=23	=23	=23	=23	=23
[2.?B	way	1.E-d	.	voice	.	84.834	E-:dim
4.B]	_	.	.	.	.	.	.
4.r	.	.	.	.	.	.	.
=24	=24	=24	=24	=24	=24	=24	=24
1.r	.	1.E-d	.	voice	.	88.694	E-:dim
=25	=25	=25	=25	=25	=25	=25	=25
8.r	.	1.FMM	newline	voice	.	92.555	F:maj7
[8.?c	and	.	.	.	.	.	.
8?c]	_	.	.	.	.	.	.
8.?d	for	.	.	.	.	.	.
16?e	e-	.	.	.	(D	.	.
16?e	-ver-	.	.	.	d	.	.
[16?e	-more	.	.	.	C)	.	.
4?e_	_	.	.	.	.	.	.
4.e]	_	.	.	.	.	.	.
=26	=26	=26	=26	=26	=26	=26	=26
4.r	.	1.FMM	.	voice	.	96.386	F:maj7
4.r	.	.	.	.	.	.	.
4g	I	.	.	.	.	.	.
4e	in-	.	.	.	.	.	.
[4e	-tend	.	.	.	.	.	.
=27	=27	=27	=27	=27	=27	=27	=27
8.e]	_	2.DMm	.	voice	.	100.217	D:7
8d	to	.	.	.	.	.	.
[16e	stay	.	.	.	.	.	.
4.e_	_	.	.	.	.	.	.
4.e]	_	2.Dm	.	voice	.	102.133	D:sus4(b7)/2
8r	.	.	.	.	.	.	.
4r	.	.	.	.	.	.	.
=28	=28	=28	=28	=28	=28	=28	=28
1.r	.	2.Ddm	.	voice	.	104.049	D:hdim7/b3
.	.	2.DMm	.	voice	.	105.964	D:7/3
=29	=29	=29	=29	=29	=29	=29	=29
4r	.	1.B-M	newline	voice	.	107.88	B-:maj
8f	That's	.	.	.	.	.	.
8r	.	.	.	.	.	.	.
8.g	why	.	.	.	.	.	.
16g	dar	.	.	.	.	.	.
8f	_	.	.	.	.	.	.
4f	ling	.	.	.	.	.	.
4.r	.	.	.	.	.	.	.
=30	=30	=30	=30	=30	=30	=30	=30
4.r	.	1.B-m	.	voice	.	111.726	B-:min
8r	.	.	.	.	.	.	.
8f	it's	.	.	.	.	.	.
16r	.	.	.	.	.	.	.
[16g	in	.	.	.	.	.	.
16g]	_	.	.	.	.	.	.
16r	.	.	.	.	.	.	.
8a	cre-	.	.	.	(D	.	.
16g	-di-	.	.	.	.	.	.
[16f	-ble	.	.	.	d)	.	.
4.f]	_	.	.	.	.	.	.
=31	=31	=31	=31	=31	=31	=31	=31
4.r	.	2.FM	.	voice	.	115.573	F:maj
8.r	.	.	.	.	.	.	.
8.e#-	that	.	.	.	.	.	.
16?e#-	some	2.Cm	.	voice	.	117.496	C:min6
8?c	_	.	.	.	.	.	.
16?e#-	one	.	.	.	.	.	.
[8?c	_	.	.	.	.	.	.
8?c]	_	.	.	.	.	.	.
8?e#-	so	.	.	.	.	.	.
8?e#-	un	.	.	.	.	.	.
=32	=32	=32	=32	=32	=32	=32	=32
8?c	_	1.DMm	.	voice	.	119.419	D:7
8.?d	for-	.	.	.	.	.	.
16?e	-get-	.	.	.	(D	.	.
16?d	-a-	.	.	.	.	.	.
[16?c	-ble	.	.	.	d)	.	.
4c_	_	.	.	.	.	.	.
8c]	_	.	.	.	.	.	.
4r	.	.	.	.	.	.	.
4.r	.	.	.	.	.	.	.
=33	=33	=33	=33	=33	=33	=33	=33
4r	.	1.GMm	newline	voice	.	123.265	G:9
[8G	thinks	.	.	.	.	.	.
8.G]	_	.	.	.	.	.	.
8A	that	.	.	.	.	.	.
[16B	I	.	.	.	.	.	.
16B]	_	.	.	.	.	.	.
[16G	am	.	.	.	.	.	.
4G_	_	.	.	.	.	.	.
4G]	_	.	.	.	.	.	.
8r	.	.	.	.	.	.	.
=34	=34	=34	=34	=34	=34	=34	=34
4.r	.	2.CM	.	voice	.	127.331	C:sus4(b7,9)
8.G	un-	.	.	.	.	.	.
8.r	.	.	.	.	.	.	.
8r	.	2.CMm	.	voice	.	129.364	C:7
8.d	-for-	.	.	.	.	.	.
[16d	-get	.	.	.	.	.	.
8d]	_	.	.	.	.	.	.
8A	a-	.	.	.	.	.	.
[8d	-ble	.	.	.	.	.	.
=35	=35	=35	=35	=35	=35	=35	=35
8d]	_	1.FMM	.	voice	.	131.397	F:maj7
8d	too	.	.	.	.	.	.
[8c	_	.	.	.	.	.	.
4.c_	_	.	.	.	.	.	.
2.c]	_	.	.	.	.	.	.
=36	=36	=36	=36	=36	=36	=36	=36
2.r	.	1.DMm	.	voice	.	135.463	D:9
4.;b-	Please	.	.	.	.	.	.
8;a	_	.	.	.	.	.	.
8;g#Q	_	.	.	.	.	.	.
8;a	won't	.	.	.	.	.	.
8;f	you	.	.	.	.	.	.
=37	=37	=37	=37	=37	=37	=37	=37
8;a	think	1.GMm	newline	voice	.	139.529	G:7
16;f	that	.	.	.	.	.	.
8;f	I	.	.	.	.	.	.
[16;d	am	.	.	.	.	.	.
4.;d]	_	.	.	.	.	.	.
4.r	.	.	.	.	.	.	.
8.;b-	un-	.	.	.	.	.	.
8.;a	-for-	.	.	.	.	.	.
=38	=38	=38	=38	=38	=38	=38	=38
16;f	-get-	1.CMm	.	voice	.	143.613	C:7
16;g	-a-	.	.	.	.	.	.
8;a	-ble	.	.	.	.	.	.
8;f	_	.	.	.	.	.	.
4.;g	_	.	.	.	.	.	.
4.r	.	.	.	.	.	.	.
4r	.	.	.	.	.	.	.
[8;f	too	.	.	.	.	.	.
=39	=39	=39	=39	=39	=39	=39	=39
1.;f_	_	1.FM	.	voice	.	147.696	F:maj
=40	=40	=40	=40	=40	=40	=40	=40
2.;f]	_	1.FM	.	voice	.	151.78	F:maj
4r	.	.	.	.	.	.	.
2r	.	.	.	.	.	.	.
=41	=41	=41	=41	=41	=41	=41	=41
r;	.	1r;	.	r	.	160.288	N.C.
=42	=42	=42	=42	=42	=42	=42	=42
r;	.	1r;	.	r	.	164.049	N.C.
*-	*-	*-	*-	*-	*-	*-	*-
!!!BillboardChartDate: 1959/11/02
!!!BillboardPeak: 17
!!!BillboardWeeksOnChart: 13
!!!COC: Dinah Washington
!!!ENC: Nathaniel Condit-Schultz
!!!EST: Awating manual error checking and editing.
!!!OTL: Unforgettable
!!!RDF**chordsym: original McGill chord annotation + (implied pitch class set, with bass pitch in first position)
!!!RDF**harmony: **recip + pitch class of root + harmonic quality
!!!RDF**leadinstrument: original McGill primary instrumentation annotation
!!!RDF**phrase: newline = linebreak in original McGill transcription
!!!RDF**timestamp: McGill audio timestamp in seconds
!!!RDT: 2017/01/12/
!!!SampleActualRank: 29
!!!SampleID#: 0192
!!!SampleTargetRank: 30
